X: 25295
T: Man Of The House, The
R: reel
M: 4/4
K: Eminor
E2BE GABG|E2BE FDAD|E2BE GABe|dBAF BAGF|
E2BE GABG|E2BE FDAD|E2BE GABe|dBAF BEE2||
efge fgaf|gfed edBd|e2ge f2af|gfed Beed|
e2ge f2af|gfed efga|bgaf gfed|edBA GEED||

